assets/illustrations/multisize/48/font.svg

<svg id="1c88832e-6892-4b5b-9ee0-f4b179924bd6" data-name="ICONS" xmlns="http://www.w3.org/2000/svg" xmlns:xlink="http://www.w3.org/1999/xlink" viewBox="0 0 48 48"><defs><linearGradient id="07ee28b6-966f-45a9-95f1-2bc6a14aa387" x1="24.05449" y1="12.74036" x2="24.05449" y2="34.9625" gradientUnits="userSpaceOnUse"><stop offset="0" stop-color="#f7903b"/><stop offset="1" stop-color="#ff5c0d"/></linearGradient><linearGradient id="2bc5c393-652d-479d-9190-39e445c09cba" x1="34" y1="16.90625" x2="34" y2="14.08751" gradientUnits="userSpaceOnUse"><stop offset="0" stop-color="#828282" stop-opacity="0"/><stop offset="0.86247" stop-color="#303030" stop-opacity="0.06315"/><stop offset="1" stop-opacity="0.1"/></linearGradient><linearGradient id="655fee74-a148-4e9e-91fd-a0ffa2a12a2c" x1="27.27" y1="12.23" x2="33.23606" y2="6.26394" gradientUnits="userSpaceOnUse"><stop offset="0" stop-color="#fff" stop-opacity="0"/><stop offset="0.44604" stop-color="#fff" stop-opacity="0.00799"/><stop offset="0.63551" stop-color="#fff" stop-opacity="0.03616"/><stop offset="0.77636" stop-color="#fff" stop-opacity="0.08493"/><stop offset="0.8924" stop-color="#fff" stop-opacity="0.15385"/><stop offset="0.99328" stop-color="#fff" stop-opacity="0.24291"/><stop offset="1" stop-color="#fff" stop-opacity="0.25"/></linearGradient><linearGradient id="bae5ac8b-ef98-4a48-b77c-7062f2615755" x1="4.58668" y1="5.86411" x2="38.48928" y2="46.26765" gradientUnits="userSpaceOnUse"><stop offset="0" stop-color="#fff" stop-opacity="0"/><stop offset="0.86247" stop-color="#5e5e5e" stop-opacity="0.06315"/><stop offset="1" stop-opacity="0.1"/></linearGradient></defs><title>FileTypeIcons_Master_All_NEW</title><polygon points="39 44 9 44 9 4 30 4 39 13 39 44" fill="#fff"/><path d="M30.00049,3H8V45H40V13ZM30,4.5,38.5,13H30ZM39,44H9V4H29V14H39Z" fill="#949494"/><path d="M27.275,27.68864h-8.4115l-1.474,3.42865a5.426,5.426,0,0,0-.54474,1.89056,1.09776,1.09776,0,0,0,.4726.87323A4.12667,4.12667,0,0,0,19.36,34.3697v.5928H12.51885v-.5928a3.6881,3.6881,0,0,0,1.76239-.62485,9.81582,9.81582,0,0,0,1.81036-3.12424l7.64246-17.88025h.56067L31.857,30.81287a8.23659,8.23659,0,0,0,1.65839,2.82779,3.37818,3.37818,0,0,0,2.07477.729v.5928H27.0186v-.5928a3.21142,3.21142,0,0,0,1.75434-.43259,1.11551,1.11551,0,0,0,.45648-.89722,6.64608,6.64608,0,0,0-.64087-2.227ZM26.82634,26.503l-3.68518-8.77991L19.36,26.503Z" fill="url(#07ee28b6-966f-45a9-95f1-2bc6a14aa387)"/><rect x="29" y="14" width="10" height="3" fill="url(#2bc5c393-652d-479d-9190-39e445c09cba)"/><polygon points="8 3 8 4 29 4 29 14 39 14 39 28 40 28 40 13 30 3 8 3" fill="url(#655fee74-a148-4e9e-91fd-a0ffa2a12a2c)"/><path d="M40,13,30,3H8V45H40Z" fill="url(#bae5ac8b-ef98-4a48-b77c-7062f2615755)"/></svg>

<?xml version="1.0" encoding="utf-8"?>
<!-- Generator: Adobe Illustrator 21.1.0, SVG Export Plug-In . SVG Version: 6.00 Build 0)  -->
<svg version="1.1" xmlns="http://www.w3.org/2000/svg" xmlns:xlink="http://www.w3.org/1999/xlink" x="0px" y="0px"
	 viewBox="0 0 48 48" enable-background="new 0 0 48 48" xml:space="preserve">
<g id="TEMPLATE" display="none">
	<g display="inline">
		<path fill="#D0D0D0" d="M48,0v48H0V0H48 M49-1h-1H0h-1v1v48v1h1h48h1v-1V0V-1L49-1z"/>
	</g>
	<g display="inline" opacity="0.1">
		<path fill="#FF3A6D" d="M45,3v42H3V3H45 M48,0H0v48h48V0L48,0z"/>
	</g>
</g>
<g id="ICONS">
	<g>
		<polygon fill="#FFFFFF" points="39,44 9,44 9,4 30,4 39,13 		"/>
		<path fill="#949494" d="M30.0005,3H8v42h32V13L30.0005,3z M30,4.5l8.5,8.5H30V4.5z M39,44H9V4h20v10h10V44z"/>
	</g>
	<g>
		<linearGradient id="SVGID_1_" gradientUnits="userSpaceOnUse" x1="24.0545" y1="12.7404" x2="24.0545" y2="34.9625">
			<stop  offset="0" style="stop-color:#F7903B"/>
			<stop  offset="1" style="stop-color:#FF5C0D"/>
		</linearGradient>
		<path fill="url(#SVGID_1_)" d="M27.275,27.6886h-8.4115l-1.474,3.4286c-0.3633,0.8439-0.5447,1.474-0.5447,1.8906
			c0,0.3312,0.1575,0.6224,0.4726,0.8732c0.3149,0.251,0.9959,0.414,2.0427,0.4886v0.5928h-6.8412v-0.5928
			c0.9077-0.1602,1.4952-0.3685,1.7624-0.6248c0.5447-0.5127,1.1481-1.5541,1.8104-3.1242l7.6425-17.8802h0.5607l7.5623,18.0725
			c0.609,1.4528,1.1616,2.3953,1.6584,2.8278c0.4966,0.4327,1.188,0.6758,2.0748,0.729v0.5928h-8.5715v-0.5928
			c0.865-0.0426,1.4498-0.1868,1.7543-0.4326c0.3043-0.2455,0.4565-0.5447,0.4565-0.8972c0-0.4698-0.2137-1.2122-0.6409-2.227
			L27.275,27.6886z M26.8263,26.503l-3.6852-8.7799L19.36,26.503H26.8263z"/>
	</g>
	<linearGradient id="SVGID_2_" gradientUnits="userSpaceOnUse" x1="34" y1="16.9063" x2="34" y2="14.0875">
		<stop  offset="0" style="stop-color:#828282;stop-opacity:0"/>
		<stop  offset="0.2812" style="stop-color:#7F7F7F;stop-opacity:0.0281"/>
		<stop  offset="0.4503" style="stop-color:#777777;stop-opacity:0.045"/>
		<stop  offset="0.5899" style="stop-color:#696969;stop-opacity:0.059"/>
		<stop  offset="0.7133" style="stop-color:#545454;stop-opacity:0.0713"/>
		<stop  offset="0.8259" style="stop-color:#3A3A3A;stop-opacity:0.0826"/>
		<stop  offset="0.9294" style="stop-color:#1A1A1A;stop-opacity:0.0929"/>
		<stop  offset="1" style="stop-color:#000000;stop-opacity:0.1"/>
	</linearGradient>
	<rect x="29" y="14" fill="url(#SVGID_2_)" width="10" height="3"/>
	<linearGradient id="SVGID_3_" gradientUnits="userSpaceOnUse" x1="27.27" y1="12.23" x2="33.2361" y2="6.2639">
		<stop  offset="0" style="stop-color:#FFFFFF;stop-opacity:0"/>
		<stop  offset="0.8537" style="stop-color:#FFFFFF;stop-opacity:0.2134"/>
		<stop  offset="1" style="stop-color:#FFFFFF;stop-opacity:0.25"/>
	</linearGradient>
	<polygon fill="url(#SVGID_3_)" points="8,3 8,4 29,4 29,14 39,14 39,28 40,28 40,13 30,3 	"/>
	<linearGradient id="SVGID_4_" gradientUnits="userSpaceOnUse" x1="4.5867" y1="5.8641" x2="38.4893" y2="46.2676">
		<stop  offset="0" style="stop-color:#FFFFFF;stop-opacity:0"/>
		<stop  offset="0.2264" style="stop-color:#FCFCFC;stop-opacity:0.0226"/>
		<stop  offset="0.3626" style="stop-color:#F4F4F4;stop-opacity:0.0363"/>
		<stop  offset="0.475" style="stop-color:#E6E6E6;stop-opacity:0.0475"/>
		<stop  offset="0.5744" style="stop-color:#D1D1D1;stop-opacity:0.0574"/>
		<stop  offset="0.6652" style="stop-color:#B7B7B7;stop-opacity:0.0665"/>
		<stop  offset="0.7498" style="stop-color:#979797;stop-opacity:0.075"/>
		<stop  offset="0.8297" style="stop-color:#707070;stop-opacity:0.083"/>
		<stop  offset="0.9057" style="stop-color:#444444;stop-opacity:0.0906"/>
		<stop  offset="0.9761" style="stop-color:#121212;stop-opacity:0.0976"/>
		<stop  offset="1" style="stop-color:#000000;stop-opacity:0.1"/>
	</linearGradient>
	<path fill="url(#SVGID_4_)" d="M40,13L30,3H8v42h32V13z"/>
</g>
</svg>
